X:1
T:Coilsfield House
C:Nath. Gow
M:4/4
L:1/8
Z:Toby A. Rider <darkrider1@earthlink.NET>
R:Slow Air
F:http://trillian.mit.edu/~jc/music/abc/Scotland/air/CoilsfieldHouse.abc	 2008-11-26 20:57:17 UT
K:G
%%staffsep 40
G/A/ |\
"G"BD GB, "Em"G,3 A/B/ | "C"c>A "G"BG "D"F<A D>c |\
"C"{d}c/B/A/G/ "D"G/F/E/D/ "Em"G2 "C"EC | "G" B,G "D7"A,F "G"{F}GG, G, :|
B/c/ |\
"G"d>B dB "C"{cd}e2 "D"AB/c/ | "G" dG"Em"FG "C"A/G/F/E/ "D"DB/c/ |\
"G"d>edB "C"{cd}e2 "Am"{ef}g2 | "D"f/g/a/g/ "D7"f/d/e/f/ "G"g2 G |]
g/a/ |\
"G"bgdB "Am"{cd}e2 "D"AB/c/ | "G"dG"Em"FG "C"A/G/F/E/ "D"D{B}c |\
"G"BGDB, "C"CD/E/ "D7"HA, D/C/ | "G"B,G "D7"A,F "G"{F}G"(C)"G, "G"G, |]
